X: 3289
T: Augustin Vals
B:[[Notböcker/Melodier til gamle danske Almuedanse for Violin solo]]
O:Danmark
Z:Søren Bak Vestergaard
M: 3/4
L: 1/8
K: F
c3 dcB|A2 F2 F2|G2 C2 C2|A2 (!upbow!.F2 !upbow!.F2)|c3 dcB|A2 F2 F2|G2 C2 C2|F4 z2:|\
|:G2 C2 C2|A2 F2 F2|G2 C2 C2|A2 F2 (FA)|c3 dcB|A2 F2 F2|G2 C2 C2|F4 z2:|
(:musicend:)
(:music:)
